!!!COM: Palestrina, Giovanni Perluigi da
!!!OPR: Missa Vestiva i colli
!!!OMD: Credo
!!!OTL: Crucifixus
**kern	**kern	**kern	**kern
*Itenor	*Icalto	*Icant	*Icant
!Tenor	!Altus	!Cantus 2	!Cantus 1
*clefGv2	*clefG2	*clefG2	*clefG2
*k[]	*k[]	*k[]	*k[]
*A:aeo	*A:aeo	*A:aeo	*A:aeo
*M4/2	*M4/2	*M4/2	*M4/2
=91	=91	=91	=91
0r	1.d	0r	1r
.	.	.	[1a
.	2d	.	.
=92	=92	=92	=92
0r	2.f	0r	2a]
.	.	.	2a
.	4g	.	.
.	2a	.	2cc
.	2b-	.	2dd
=93	=93	=93	=93
0r	2a	1r	2ee
.	4f	.	2ff
.	4g	.	.
.	4a	[1a	2ee
.	4b	.	.
.	[2cc	.	4a
.	.	.	4b
=94	=94	=94	=94
1.A	4cc]	2a]	4cc
.	4b	.	4dd
.	2cc	2a	4ee
.	.	.	4dd
.	[1a	2.cc	4ee
.	.	.	4ff
2A	.	.	[2ee
.	.	4dd	.
=95	=95	=95	=95
2c	1a]	2ee	2ee]
2d	.	2ff	4dd
.	.	.	4cc
2e	2g	2ee	2b
2f	[2a	4cc	2a
.	.	4dd	.
=96	=96	=96	=96
1e	2a]	4ee	1b
.	.	4ff	.
.	2g	2.gg	.
4c	4e	.	1r
4d	4f	4ff	.
4e	4g	2ee	.
4f	4a	.	.
=97	=97	=97	=97
2g	2b	2dd	0r
2a	1a	2cc	.
1e	.	1b	.
.	2g#	.	.
=98	=98	=98	=98
2r	2a	1a	2r
2d	2a	.	2dd
2f	2a	1r	2dd
2e	2g	.	2cc#
=99	=99	=99	=99
2.d	[0a	2r	2dd
.	.	2dd	1ff
4e	.	.	.
4f	.	2dd	.
4g	.	.	.
2a	.	2cc#	[2ee
=100	=100	=100	=100
1d	1a]	2dd	4ee]
.	.	.	4dd
.	.	1ff	2dd
2.a	1r	.	1cc
.	.	[2ee	.
4g	.	.	.
=101	=101	=101	=101
1f	2r	4ee]	2.a
.	.	4dd	.
.	2a	2dd	.
.	.	.	4b
1e	2g	1ee	4cc
.	.	.	4b
.	[2cc	.	2ee
=102	=102	=102	=102
1g	2cc]	1r	0dd
.	2b	.	.
2f	2a	2r	.
2d	[2b	2dd	.
=103	=103	=103	=103
1f	4b]	2cc	0r
.	4a	.	.
.	1a	2a	.
2.e	.	2cc	.
.	2g	[2b	.
4d	.	.	.
=104	=104	=104	=104
2c	2e	4b]	1r
.	.	4a	.
2d	2f	1a	.
1B	2.d	.	2r
.	.	2g#	2dd
.	4e	.	.
=105	=105	=105	=105
1A	4f	4a	2cc
.	4g	4b	.
.	2.a	4cc	2a
.	.	4dd	.
2A	.	2ee	2cc
.	8g#	.	.
.	8f#	.	.
2e	2g#	[2ee	[2b
=106	=106	=106	=106
2c	1a	2ee]	4b]
.	.	.	4a
2d	.	2ff	1a
1B	1d	2dd	.
.	.	2dd	2g#
=107	=107	=107	=107
0A	1e	1cc#	1a
.	2r	2r	2r
.	2e	2ee	2a
=108	=108	=108	=108
1r	2f	2cc	2a
.	2e	2dd	2b
2r	2.c	1ee	4cc
.	.	.	4cc
2A	.	.	2ee
.	4d	.	.
=109	=109	=109	=109
2A	2e	2.a	2cc
2d	2f	.	2dd
.	.	4b	.
2c	1g	1cc	2ee
2c	.	.	2ee
=110	=110	=110	=110
2.A	2.cc	0r	2.ee
4c	4cc	.	4ee
2G	2b	.	2dd
2A	[2a	.	2cc
=111	=111	=111	=111
1e	4a]	2r	1b
.	8g#	.	.
.	8f#	.	.
.	2g#	2ee	.
[1f	2a	2dd	1r
.	[2a	2cc	.
=112	=112	=112	=112
2f]	2a]	2dd	1r
2e	2g	2ee	.
2d	2f	[1a	2r
2c#	2e	.	2ee
=113	=113	=113	=113
2d	2f	2a]	2dd
2A	4e	2ee	2cc#
.	4e	.	.
2.a	2d	2ff	2dd
.	2c#	2ee	2ee
4g	.	.	.
=114	=114	=114	=114
1f	2d	1dd	2.a
.	1a	.	.
.	.	.	4b
1e	.	2.ee	2cc
.	4g#	.	2b
.	4f#	8dd	.
.	.	8cc	.
=115	=115	=115	=115
2d	2g#	2b	1ee
2a	2a	2cc	.
2a	1e	1b	2r
2g#	.	.	2ee
=116	=116	=116	=116
2.a	0r	2r	2ee
.	.	2a	2cc
4g	.	.	.
2f	.	2a	2dd
2e	.	2g	2ee
=117	=117	=117	=117
1d	1r	2a	1ff
.	.	2b	.
1A	2r	1cc	[1ee
.	2a	.	.
=118	=118	=118	=118
1e	2a	2b	1ee]
.	2g	2ee	.
1r	2.a	2ee	2r
.	.	2cc	2a
.	4g	.	.
=119	=119	=119	=119
1r	2f	2dd	2a
.	2e	2ee	2g
2r	2.d	[1ff	1a
2d	.	.	.
.	4e	.	.
=120	=120	=120	=120
2d	4f	2ff]	2a
.	4g	.	.
2c	1a	2ee	2a
2d	.	2r	1b
2e	2g#	2ee	.
=121	=121	=121	=121
2f	2r	2ee	1a
2f	2a	2dd	.
1e	2a	2.ee	2r
.	2g#	.	2ee
.	.	4dd	.
=122	=122	=122	=122
0r	2a	2cc	2ee
.	2b	2b	2dd
.	2.cc	2a	2.ee
.	.	2a	.
.	4b	.	4dd
=123	=123	=123	=123
0r	2a	2.ee	2cc
.	2g#	.	2.b
.	.	4dd	.
.	1a	1cc	.
.	.	.	4a
.	.	.	[2a
=124	=124	=124	=124
1r	2.e	1b	2a]
.	.	.	2g#
.	4d	.	.
2r	4c	1a	4a
.	4B	.	4b
2a	2A	.	4cc
.	.	.	4a
=125	=125	=125	=125
2a	1e	2r	1b
2g#	.	2ee	.
2.a	2r	2ee	1r
.	2a	2cc	.
4g	.	.	.
=126	=126	=126	=126
2f	2a	2dd	1r
2e	2g	2ee	.
[1d	2.a	2.ff	2r
.	.	.	2dd
.	4g	4ee	.
=127	=127	=127	=127
2d]	2f	2dd	2dd
2A	2e	2ee	2cc#
2d	2f	[1a	2dd
2c#	2e	.	2ee
=128	=128	=128	=128
2d	1.d	0a]	2ff
2.f	.	.	1ff
8e	.	.	.
8d	.	.	.
2c#	2e	.	2ee
=129	=129	=129	=129
0d	0f	[0a	0dd
=130	=130	=130	=130
0A	0e	0a]	0cc#
*-	*-	*-	*-
!!!CDT: 1525/^1526/-1594/2/2
!!!OCY: Italia
!!!AGN: Mass (Parody)
!!!AST: renaissance, vocal
!!!ASW: Madrigal 1566 (Palestrina)
!!!PWK: Masses, Book 9
!!!RNB: Cadence finals: D
!!!YOR: Le Opere Complete, v. 25, p. 54
!!!YOO: Rome, Italy: Fratelli Scalera
!!!END: 1992//
!!!EED: John Miller
!!!YEC: Copyright 2000, John Miller
!!!YEN: United States of America
!!!YEM: Rights to all derivative electronic formats reserved.
!!!YEM: Refer to licensing agreement for further details.
!!!YEM: This file must be accompanied by the licensing agreement.
!!!YEM: A copy of the licensing agreement may be found at http://www.music-cog.ohio-state.edu/HumdrumDatabases/Palestrina/license.txt
!!!EMD: converted to Humdrum by Bret Aarden
